X: 17928
T: House That Jack Built, The
R: jig
M: 6/8
K: Dmajor
|:A|Afe d2c|Bcd A2G|FAd dcd|cee e2A|
Afe d2c|Bcd A2G|FAd cBc|e3 d2:|
|:e|edc cBA|d2e f2a|agf gBe|d3 c2e|
edc cBA|d2e f2a|agf gec|e3 d2:|
|:A|f2d dcd|g2e e2c/d/|efe c2A|e3 d2A|
f2d dcd|g2e e3|efe c2A|dfe d2:|

